X:1
T:Sonate KV 14
T:Sonate KV 14
T:Wolfgang Amadeus Mozart arr. Rampal / Veyron-Lacroix 
C:Wolfgang Amadeus Mozart
%%score 1 { ( 2 5 ) | ( 3 4 ) }
L:1/8
Q:1/4=50
M:2/2
K:C
V:1 treble nm="Flûte"
V:2 treble nm="Clavecin"
V:5 treble 
V:3 bass 
V:4 bass 
V:1
"^Allegro" z/[Q:1/2=70] G/A/B/ | c/G/A/B/ c/d/e/f/ g/c/d/e/ f/g/a/b/ | c'2 g4 ^g2 | a2 c'4 a2 | %4
 ^f2 g4 c'2 | c'a gf e2 d2 | c2 g4 ^g2 | a2 c'4 a2 | ^f2 g4 c'2 | af ed c2 B2 | c2 c>c c2 z2 | %11
 ge z e ^de de | gd z d ^cd cd | d/c/B/c/ a2 c/B/A/B/ g2 | B4 A2 z2 | z2 Tg3/2^f/4g/4 b2 G2 | G8 | %17
 z2 Tg3/2^f/4g/4 b2 G2 | G8 | z2 Tg3/2^f/4g/4 b2 G2 | G6 ec | d2 c2 B2 (3cA^F | %22
 AG ^FG GA/B/ c/d/e/^f/ | Tg3/2^f/4g/4 b2 z2 G2 | ^G2 A z G2 A z | Tg3/2^f/4g/4 b2 z2 B2 | %26
 B2 c z B2 c z | Tg3/2^f/4g/4 b2 z2 G2 | ^G2 A z z2 ec | d2 c2 Bg z ^F | %30
 G/A/B/c/ d/e/^f/g/ E/^F/G/A/ B/c/d/e/ | D4 A4 | G/A/B/c/ d/e/^f/g/ E/^F/G/A/ B/c/d/e/ | D4 a4 | %34
 g2 g>g g2 :: z/ D/E/^F/ | G/D/E/^F/ G/A/B/c/ d/G/A/B/ c/d/e/^f/ | g2 d4 ^d2 | e2 g4 e2 | %39
 ^c2 d4 g2 | ec BA G2 ^F2 | G2 d4 ^d2 | e2 g4 e2 | ^c2 d4 g2 | ec BA G2 ^F2 | G2 G>G G2 z2 | %46
{_B} _b4 (3bag (3fed | d4 ^c/B/c/d/ e/d/e/f/ | g>f ed ^c_B AG | G4 F2 z2 | z4 f4 | %51
 F4 FE/G/ F/d/c/e/ | d z B z F z D z | c2 C4 A>E | E4 D2 z/ G/A/B/ | %55
 c/G/A/B/ c/d/e/f/ g/c/d/e/ f/g/a/b/ | c'2 g4 ^g2 | a2 c'4 a2 | ^f2 g4 c'2 | af ed c2 B2 | %60
 c2 g4 ^g2 | a2 c'4 a2 | ^f2 g4 c'2 | af ed c2 B2 | c_B B4 c/B/A/G/ | ^GA ^ga =gf ed | %66
 e/d/^c/d/ a2 d/=c/B/c/ a2 | c4 B2 z2 | z2 Tc3/2B/4c/4 e2 C2 | C8 | z2 Tc3/2B/4c/4 e2 C2 | C8 | %72
 z2 Tc3/2B/4c/4 e2 C2 | C6 af | g2 f2 e2 (3fdB | dc Bc cd/e/ f/g/a/b/ | Tc'3/2b/4c'/4 e'2 z2 c2 | %77
 ^c2 d z c2 d z | Tc'3/2b/4c'/4 e'2 z2 e2 | e2 f z e2 f z | Tc'3/2b/4c'/4 e'2 z2 c2 | %81
 ^c2 d z z2 af | g2 f2 ec' z B | c/d/e/f/ g/a/b/c'/ A/B/c/d/ e/f/g/a/ | G4 d4 | %85
 c/d/e/f/ g/a/b/c'/ A/B/c/d/ e/f/g/a/ | G4 d'4 | c'2 c'>c' c'2 :| %88
[M:2/4][Q:1/4=50]"^Allegro"[Q:1/4=120] z !wedge!G !wedge!c!wedge!e | z !wedge!F !wedge!d!wedge!f | %90
 z !wedge!G !wedge!B!wedge!d | z !wedge!E !wedge!G!wedge!c | z c{^f} g2 | z c{^g} a2 | %94
 c/_B/A/G/ A>E | E2 D2 |{^f} g2 =f/e/d/c/ | Tc2 B2 |{e} f2 e/d/c/B/ | B2 c z |{^f} g2 =f/e/d/c/ | %101
{^g} a2 =g/f/e/d/ |{^a} b2 =a/g/f/e/ |{b} c'2 b/a/g/f/ |{^c'} d'2 =c'/b/a/g/ | c'g ec | G2 d2 | %107
 c2 z2 | z c{^f} g2 | z c{^g} a2 | z d{^a} b2 | z e{b} c'2 | z f{^c'} d'2 | c'g ec | G (c2 B) | %115
 c2 z2 | z _e/f/ ge | z d/_e/ fd | (_e2 c2) | (d2 B2) | z _e/f/ ge | z d/_e/ fd | (_e2 c2) | %123
 (d2 B2) | z !wedge!G !wedge!c!wedge!e | z !wedge!F !wedge!d!wedge!f | %126
 z !wedge!G !wedge!B!wedge!d | z !wedge!E !wedge!G!wedge!c | z c{^f} g2 | z c{^g} a2 | %130
 c/_B/A/G/ A>E | E2 D2 |{^f} g2 =f/e/d/c/ | Tc2 B2 |{e} f2 e/d/c/B/ | B2 c z |{^f} g2 =f/e/d/c/ | %137
{^g} a2 =g/f/e/d/ |{^a} b2 =a/g/f/e/ |{b} c'2 b/a/g/f/ |{^c'} d'2 =c'/b/a/g/ | c'g ec | G2 d2 | %143
 c2 z2 | z c{^f} g2 | z c{^g} a2 | z d{^a} b2 | z e{b} c'2 | z f{^c'} d'2 | c'g ec | G (c2 B) | %151
 c2 z2 | Tc>d cc | Td2 c2 | Tc>d cc | TB2 A2 | Tc>d cc | Td>e dd | z (c B)!wedge!A | (A2 ^G2) | %160
 Te>f ea | Tf2 e2 | Te>f ea | Td2 c2 | Te>f ea | Tf>g fa | ea d^g | (^g2 a2) | a4- | a4 | a4- | %171
 a4 | G4- | G4 | G4- | G4 | Tc>d cc | Td2 c2 | Tc>d cc | TB2 A2 | Tc>d cc | Td>e dd | %182
 !wedge!c(e/c/) z (d/B/) | (B2 c2) | z !wedge!G !wedge!c!wedge!e | z !wedge!F !wedge!d!wedge!f | %186
 z !wedge!G !wedge!B!wedge!d | z !wedge!E !wedge!G!wedge!c | z c{^f} g2 | z c{^g} a2 | %190
 c/_B/A/G/ A>E | E2 D2 |{^f} g2 =f/e/d/c/ | Tc2 B2 |{e} f2 e/d/c/B/ | B2 c z |{^f} g2 =f/e/d/c/ | %197
{^g} a2 =g/f/e/d/ |{^a} b2 =a/g/f/e/ |{b} c'2 b/a/g/f/ |{^c'} d'2 =c'/b/a/g/ | c'g ec | G2 d2 | %203
 c2 z2 | z c{^f} g2 | z c{^g} a2 | z d{^a} b2 | z e{b} c'2 | z f{^c'} d'2 | c'g ec | G (c2 B) | %211
 c2 z2 | z _e/f/ ge | z d/_e/ fd | (_e2 c2) | (d2 B2) | z _e/f/ ge | z d/_e/ fd | (_e2 c2) | %219
 (d2 B2) | z !wedge!G !wedge!c!wedge!e | z !wedge!F !wedge!d!wedge!f | %222
 z !wedge!G !wedge!B!wedge!d | z !wedge!E !wedge!G!wedge!c | z c{^f} g2 | z c{^g} a2 | %226
 c/_B/A/G/ A>E | E2 D2 |{^f} g2 =f/e/d/c/ | Tc2 B2 |{e} f2 e/d/c/B/ | B2 c z |{^f} g2 =f/e/d/c/ | %233
{^g} a2 =g/f/e/d/ |{^a} b2 =a/g/f/e/ |{b} c'2 b/a/g/f/ |{^c'} d'2 =c'/b/a/g/ | c'g ec | G (c2 B) | %239
 c2 z2 | z c{^f} g2 | z c{^g} a2 | z d{^a} b2 | z e{b} c'2 | z f{^c'} d'2 | c'g ec | G2 B2 | %247
 c2 z2 |][M:3/4][Q:1/4=50]"^Menuetto I"[Q:1/4=132]{B} c2{B} c2{B} c2 |{a} g^f ga g2 | %250
{g} =f2 f2 ef | e2 d2 c2 |{B} c2{B} c2{B} c2 |{d'} c'b c'd' c'2 | b2 g2 T^f2 |{^f} g6 :: z6 | %257
{B} c2{B} c2{B} c2 | c'6 | C6 | z6 |{^c} d2{c} d2{c} d2 | d'6 | D6 |{B} c2{B} c2{B} c2 | %265
{a} g^f ga g2 |{g} =f2 f2 ef | (e2 d2) !wedge!c2 |{^g} a2 a2 =ga | g2 b2 !wedge!c'2 | %270
{b} ag/f/ e2 d2 |{d} c6 :| %272
[K:F][M:3/4][Q:1/4=50]"^Menuetto II en carillon" (3fag f/g/a/b/ c'/d'/e'/f'/ | c'2 Tb2 a2 | %274
 A2 z2 A2 | c2 B2 A2 | (3d'f'e' (3d'c'=b (3agf | (3c'e'd' (3c'=ba (3gfe |{=b} ag/f/ e2 d2 | c6 :: %280
 dd' dd' dd' | dd' dd' dd' | cc' cc' cc' | cc' cc' cc' | (3d'f'e' (3f'd'b (3d'bf | %285
 (3c'f'e' (3f'c'a (3c'af | (3d'bg (3c'af (3bge |{e} f2 z2 z2 :| %288
V:2
 z2 | z8 | (3EGc (3EGc (3EGc (3EGc | (3FAc (3FAc (3FAc (3FAc | (3EGc (3EGc (3EGc (3EGc | %5
 AF ED C2 B,2 | (3EGc (3EGc (3EGc (3EGc | (3FAc (3FAc (3FAc (3FAc | (3EGc (3EGc (3EGc (3EGc | %9
 cA GF E2 D2 | C2 [EGc]>[EGc] [EGc]2 z2 | (3EGc (3EGc (3EGc (3EGc | (3DGB (3DGB (3DGB (3DGB | %13
 (3Ac^f (3Acf gG BG | G4 ^F2 z2 | Tg3/2^f/4g/4 b2 z2 G2 | ^G2 A z G2 A z | Tg3/2^f/4g/4 b2 z2 B2 | %18
 B2 c z B2 c z | Tg3/2^f/4g/4 b2 z2 G2 | ^G2 A z z4 | B2 A2 G2 (^FA,) | B,2 B,2 B,2 z2 | %23
 g z Tg3/2^f/4g/4 b2 d'2 | G8 | z2 Tg3/2^f/4g/4 b2 d'2 | G8 | z2 Tg3/2^f/4g/4 b2 d'2 | G6 z c | %29
 B2 A2 G2 ^FA | [B,DG]2 z2 [CEG]2 z2 | [Bd]G TG3/2^F/4G/4 GC TC3/2B,/4C/4 | [B,DG]2 z2 [CEG]2 z2 | %33
 [Bd]G g4 ^f2 | g2 [Bdg]>[Bdg] [Bdg]2 :: z2 | z8 | (3Bdg (3Bdg (3Bdg (3Bdg | %38
 (3ceg (3ceg (3ceg (3ceg | (3Bdg (3Bdg (3Bdg (3Bdg | ge dc B2 A2 | (3B,DG (3B,DG (3B,DG (3B,DG | %42
 (3CEG (3CEG (3CEG (3CEG | (3B,DG (3B,DG (3B,DG (3B,DG | Ge dc B2 A2 | G/G/^F/G/ A/G/F/G/ G,2 z2 | %46
 z4{_B} _b4 | E4- EA/B/ ^c/B/c/d/ | e>d .^c._B .A.G .F.E | (E4 D2) z2 | f4- (3f_af (3_edc | %51
 (c4 B/)d/c/e/ d/f/e/g/ | f/g/f/e/ d/e/d/c/ B/c/B/A/ G/A/G/F/ | E (g2 ^g) a/=g/f/e/ d/c/B/c/ | %54
 (c4 B2) GF | E2 z2 z4 | (3EGc (3EGc (3EGc (3EGc | (3FAc (3FAc (3FAc (3FAc | %58
 (3EGc (3EGc (3EGc (3EGc | cA GF E2 D2 | (3EGc (3EGc (3EGc (3EGc | (3FAc (3FAc (3FAc (3FAc | %62
 (3EGc (3EGc (3EGc (3EGc | AF ED C2 B,2 | C z c4 c2- | c2 c4 A2- | A2 d4 z2 | %67
 D/G/^F/G/ A/G/F/G/ G, z z2 | Tc3/2B/4c/4 e2 z2 C2 | ^C2 D z C2 D z | Tc3/2B/4c/4 e2 z2 E2 | %71
 E2 F z E2 F z | Tc3/2B/4c/4 e2 z2 C2 | ^C2 D z z2 AF | E2 D2 C2 (B,D) | (DC) (B,C) C2 z2 | %76
 c z Tc3/2B/4c/4 e2 g2 | C8 | z2 Tc3/2B/4c/4 e2 g2 | C8 | z2 Tc3/2B/4c/4 e2 g2 | C6 z f | %82
 e2 d2 c2 Bd | [Gc]2 z2 [Ac]2 z2 | gc Tc3/2B/4c/4 cF TF3/2E/4F/4 | [EG]2 z2 [FA]2 z2 | %86
 [EG]2 c4 B2 | c2 [EGc]>[EGc] [EGc]2 :|[M:2/4]{^f} g2 =f/e/d/c/ | Tc2 B2 |{e} f2 e/d/c/B/ | %91
 B2 c z |{^f} g2 =f/e/d/c/ |{^g} a2 =g/f/e/d/ | a/g/f/e/ d/c/B/c/ | Tc2 B2 | %96
 z !wedge!G !wedge!c!wedge!e | z !wedge!F !wedge!d!wedge!f | z !wedge!G !wedge!B!wedge!d | %99
 z !wedge!E !wedge!G!wedge!c | z2{^f} g2 | z2{^g} a2 | z2{^a} b2 | z2{b} c'2 | z2{^c'} d'2 | %105
 c'g ec | G (c2 B) | c2 z2 | z{^f} g =f/e/d/c/ | z{^g} a =g/f/e/d/ | z{^a} b =a/g/f/e/ | %111
 z{b} c' b/a/g/f/ | z{^c'} d' =c'/b/a/g/ | c'g ec | G2 Td2 | c2 z2 | ([_eg]2 [ce]2) | %117
 ([df]2 [Bd]2) | z [c_e]/[df]/ [eg][ce] | z [Bd]/[c_e]/ [df][Bd] | ([_eg]2 [ce]2) | ([df]2 [Bd]2) | %122
 z [c_e]/[df]/ [eg][ce] | z [Bd]/[c_e]/ [df][Bd] |{^f} g2 =f/e/d/c/ | Tc2 B2 |{e} f2 e/d/c/B/ | %127
 B2 c z |{^f} g2 =f/e/d/c/ |{^g} a2 =g/f/e/d/ | a/g/f/e/ d/c/B/c/ | Tc2 B2 | %132
 z !wedge!G !wedge!c!wedge!e | z !wedge!F !wedge!d!wedge!f | z !wedge!G !wedge!B!wedge!d | %135
 z !wedge!E !wedge!G!wedge!c | z2{^f} g2 | z2{^g} a2 | z2{^a} b2 | z2{b} c'2 | z2{^c'} d'2 | %141
 c'g ec | G (c2 B) | c2 z2 | z{^f} g =f/e/d/c/ | z{^g} a =g/f/e/d/ | z{^a} b =a/g/f/e/ | %147
 z{b} c' b/a/g/f/ | z{^c'} d' =c'/b/a/g/ | c'g ec | G2 Td2 | c2 z2 | Te>f ea | Tf2 e2 | Te>f ea | %155
 Td2 c2 | Te>f ea | Tf>g fa | z (e d)!wedge!c | Tc2 B2 | Tc>d cc | Td2 c2 | Tc>d cc | TB2 A2 | %164
 Tc>d cc | Td>e dd | !wedge!c(e/c/) z (d/B/) | (B2 c2) | eA gA | fA dA | ^cA eA | e2 d2 | dG fG | %173
 eG cG | BG dG | d2 c2 | Te>f ea | Tf2 e2 | Te>f ea | Td2 c2 | Te>f ea | Tf>g fa | ea d^g | %183
 (^g2 a2) |{^f} g2 =f/e/d/c/ | Tc2 B2 |{e} f2 e/d/c/B/ | B2 c z |{^f} g2 =f/e/d/c/ | %189
{^g} a2 =g/f/e/d/ | a/g/f/e/ d/c/B/c/ | Tc2 B2 | z !wedge!G !wedge!c!wedge!e | %193
 z !wedge!F !wedge!d!wedge!f | z !wedge!G !wedge!B!wedge!d | z !wedge!E !wedge!G!wedge!c | %196
 z2{^f} g2 | z2{^g} a2 | z2{^a} b2 | z2{b} c'2 | z2{^c'} d'2 | c'g ec | G (c2 B) | c2 z2 | %204
 z{^f} g =f/e/d/c/ | z{^g} a =g/f/e/d/ | z{^a} b =a/g/f/e/ | z{b} c' b/a/g/f/ | %208
 z{^c'} d' =c'/b/a/g/ | c'g ec | G2 Td2 | c2 z2 | ([_eg]2 [ce]2) | ([df]2 [Bd]2) | %214
 z [c_e]/[df]/ [eg][ce] | z [Bd]/[c_e]/ [df][Bd] | ([_eg]2 [ce]2) | ([df]2 [Bd]2) | %218
 z [c_e]/[df]/ [eg][ce] | z [Bd]/[c_e]/ [df][Bd] |{^f} g2 =f/e/d/c/ | Tc2 B2 |{e} f2 e/d/c/B/ | %223
 B2 c z |{^f} g2 =f/e/d/c/ |{^g} a2 =g/f/e/d/ | a/g/f/e/ d/c/B/c/ | Tc2 B2 | %228
 z !wedge!G !wedge!c!wedge!e | z !wedge!F !wedge!d!wedge!f | z !wedge!G !wedge!B!wedge!d | %231
 z !wedge!E !wedge!G!wedge!c | z2{^f} g2 | z2{^g} a2 | z2{^a} b2 | z2{b} c'2 | z2{^c'} d'2 | %237
 c'g ec | G2 Td2 | c2 z2 | z{^f} g =f/e/d/c/ | z{^g} a =g/f/e/d/ | z{^a} b =a/g/f/e/ | %243
 z{b} c' b/a/g/f/ | z{^c'} d' =c'/b/a/g/ | c'g ec | G2 [DFG]2 | [CEG]2 z2 |][M:3/4] Ec Gc Ec | %249
 DB{c} BA/B/ DB | c6 | c6 | Ec Gc Ec | A^f cf Af | [Bg]G B2 A2 |{A} B6 ::{B} c2{B} c2{B} c2 | %257
{d'} c'b c'd' c'2 | (c2 _B2) AB | (A2 G2) !wedge!F2 |{^c} d2{c} d2{c} d2 |{e'} d'^c' d'e' d'2 | %262
 (d2 =c2) Bc | (B2 A2) !wedge!G2 | Ec Gc Ec | DB{c} BA/B/ DB | c6 | c6 | c6 | c2 (f2 e2) | %270
{g} fe/d/ c2 B2 |{B} c6 :|[K:F][M:3/4] [Acf]2 z2 [Acf]2 | (3z cg (3z cg [cf]2 | %274
 (3fag f/g/a/b/ c'/d'/e'/f'/ | a2 Tg2 f2 | [Ad]2 z2 z2 | [Gcg]2 z2 z2 | c4 [FG=B]2 | [EGc]6 :: %280
 c'4 bc' | (b2 a2) g2 | b4 ab | (a2 g2) f2 | z2 [Bf][df] [Bf][df] | z2 [Af][cf] [Af][cf] | %286
 z [Bd] [Ac]2 [EBc]2 | [FAc]2 z2 z2 :| %288
V:3
 z2 | z8 | (3C,E,G, (3C,E,G, (3C,E,G, (3C,E,G, | (3C,F,A, (3C,F,A, (3C,F,A, (3C,F,A, | %4
 (3C,E,G, (3C,E,G, (3C,E,G, (3C,E,G, | (3F,,A,,D, (3F,,A,,D, (3G,,C,E, (3G,,D,F, | %6
 (3C,E,G, (3C,E,G, (3C,E,G, (3C,E,G, | (3C,F,A, (3C,F,A, (3C,F,A, (3C,F,A, | %8
 (3C,E,G, (3C,E,G, (3C,E,G, (3C,E,G, | (3F,,A,,D, (3F,,A,,D, (3G,,C,E, (3G,,D,F, | %10
 C,2 [C,E,G,]>[C,E,G,] [C,E,G,]2 z2 | (3C,E,G, (3C,E,G, (3C,E,G, (3C,E,G, | %12
 (3B,,D,G, (3B,,D,G, (3B,,D,G, (3B,,D,G, | (3^F,A,D (3F,A,D (3G,B,D (3G,B,D | %14
 D,/D/^C/D/ E/D/C/D/ (3D,^F,A, (3C,F,A, | (3B,,D,G, (3B,,D,G, (3B,,D,G, (3B,,D,G, | %16
 (3C,E,G, (3C,E,G, (3C,E,G, (3C,E,G, | (3D,G,B, (3D,G,B, (3D,G,B, (3D,G,B, | %18
 (3E,G,C (3E,G,C (3E,G,C (3E,G,C | (3B,,D,G, (3B,,D,G, (3B,,D,G, (3B,,D,G, | %20
 (3C,E,G, (3C,E,G, (3C,E,G, (3C,E,G, | (3D,G,B, (3D,^F,A, (3D,G,B, (3D,A,C | %22
 (3E,G,B, (3E,G,B, E,2 z2 | (3B,,D,G, (3B,,D,G, (3B,,D,G, (3B,,D,G, | %24
 (3C,E,G, (3C,E,G, (3C,E,G, (3C,E,G, | (3D,G,B, (3D,G,B, (3D,G,B, (3D,G,B, | %26
 (3E,G,C (3E,G,C (3E,G,C (3E,G,C | (3B,,D,G, (3B,,D,G, (3B,,D,G, (3B,,D,G, | %28
 (3C,E,G, (3C,E,G, (3C,E,G, (3C,E,G, | (3D,G,B, (3D,^F,A, (3D,G,B, (3D,A,C | %30
 (3B,,D,G, (3B,,D,G, (3C,E,G, (3C,E,G, | (3D,G,B, (3D,G,B, (3D,G,A, (3D,^F,A, | %32
 (3B,,D,G, (3B,,D,G, (3C,E,G, (3C,E,G, | (3D,G,B, (3D,G,B, (3D,G,A, (3D,^F,A, | G,2 G,,>G,, G,,2 :: %35
 z2 | z8 | (3G,B,D (3G,B,D (3G,B,D (3G,B,D | (3G,CE (3G,CE (3G,CE (3G,CE | %39
 (3G,B,D (3G,B,D (3G,B,D (3G,B,D | (3C,E,A, (3C,E,A, (3D,G,B, (3D,A,C | %41
 (3G,,B,,D, (3G,,B,,D, (3G,,B,,D, (3G,,B,,D, | (3G,,C,E, (3G,,C,E, (3G,,C,E, (3G,,C,E, | %43
 (3G,,B,,D, (3G,,B,,D, (3G,,B,,D, (3G,,B,,D, | (3C,E,A, (3C,E,A, (3D,G,B, (3D,A,C | %45
 G,,/G,/^F,/G,/ A,/G,/F,/G,/ G,,2 z2 | (3G,_B,D (3G,B,D (3G,B,D (3G,B,D | %47
 A,,/A,/^G,/A,/ B,/A,/G,/A,/ A,,2 z2 | (3A,^CE (3A,CE (3A,CE (3A,CE | D,/D/^C/D/ E/D/C/D/ D,2 z2 | %50
 (3_A,CF (3A,CF (3A,CF (3A,CF | G,,/G,/^F,/G,/ A,/G,/F,/G,/ G,,2 z2 | %52
 (3G,,B,,D, (3G,,B,,D, (3G,,B,,D, (3B,,D,G, | (3C,E,G, (3E,G,C (3F,A,C (3^F,A,C | %54
 G,,/G,/^F,/G,/ A,/G,/F,/G,/ G,,=F,E,D, | C,2 z2 z4 | (3C,E,G, (3C,E,G, (3C,E,G, (3C,E,G, | %57
 (3C,F,A, (3C,F,A, (3C,F,A, (3C,F,A, | (3C,E,G, (3C,E,G, (3C,E,G, (3C,E,G, | %59
 (3F,,A,,D, (3F,,A,,D, (3G,,C,E, (3G,,D,F, | (3C,E,G, (3C,E,G, (3C,E,G, (3C,E,G, | %61
 (3C,F,A, (3C,F,A, (3C,F,A, (3C,F,A, | (3C,E,G, (3C,E,G, (3C,E,G, (3C,E,G, | %63
 (3F,,A,,D, (3F,,A,,D, (3G,,C,E, (3G,,D,F, | (3E,G,C (3E,G,C (3E,G,C (3E,G,C | %65
 (3F,A,C (3F,A,C (3F,A,C (3F,A,C | (3F,A,D (3F,A,D (3^F,A,D (3F,A,D | %67
 G,,/G,/^F,/G,/ A,/G,/F,/G,/ G,,G,F,,=F, | (3E,,G,,C, (3E,,G,,C, (3E,,G,,C, (3E,,G,,C, | %69
 (3F,,A,,C, (3F,,A,,C, (3F,,A,,C, (3F,,A,,C, | (3G,,C,E, (3G,,C,E, (3G,,C,E, (3G,,C,E, | %71
 (3A,,C,F, (3A,,C,F, (3A,,C,F, (3A,,C,F, | (3E,,G,,C, (3E,,G,,C, (3E,,G,,C, (3E,,G,,C, | %73
 (3F,,A,,C, (3F,,A,,C, (3F,,A,,C, (3F,,A,,C, | (3G,,C,E, (3G,,B,,D, (3G,,C,E, (3G,,D,F, | %75
 (3A,,C,E, (3A,,C,E, A,,2 z2 | (3E,G,C (3E,G,C (3E,G,C (3E,G,C | (3F,A,C (3F,A,C (3F,A,C (3F,A,C | %78
 (3G,CE (3G,CE (3G,CE (3G,CE | (3A,CF (3A,CF (3A,CF (3A,CF | (3E,G,C (3E,G,C (3E,G,C (3E,G,C | %81
 (3F,A,C (3F,A,C (3F,A,C (3F,A,C | (3G,CE (3G,B,D (3G,CE (3G,DF | (3E,G,C (3E,G,C (3F,A,C (3F,A,C | %84
 (3G,CE (3G,CE (3G,CD (3G,B,D | (3E,G,C (3E,G,C (3F,A,C (3F,A,C | (3G,CE (3G,CE (3G,CD (3G,B,D | %87
 C2 C,>C, C,2 :|[M:2/4][I:staff -1] [CEG]4 | [DFG]4 | [DFG]4 | [EG]4 |[I:staff +1] [E,G,C]2 z2 | %93
 [F,A,C]2 z2 | F,2 ^F,2 | G,2 G,,2 |[K:treble] [CEG]4 | [DFG]4 | [DFG]4 | [EG]4 | [EGc]2 z2 | %101
 [FAc]2 z2 | [GBe]2 z2 | [Ace]2 z2 | [Bdg]2 z2 | [ceg]2 z2 |[K:bass] G,2 G,,2 | C,G,, C,,2 | %108
 [E,G,C]2 z2 | C2 D2- | D2 E2- | E2 F2- | F2 G2- | G2 z2 | G,2 G,,2 | C,G,, C,,2 | %116
 G,/G/G,/G/ G,/G/G,/G/ | G,/G/G,/G/ G,/G/G,/G/ | G, z z2 | G, z z2 | G,/G/G,/G/ G,/G/G,/G/ | %121
 G,/G/G,/G/ G,/G/G,/G/ | G, z z2 | G, z z2 |[I:staff -1] [CEG]4 | [DFG]4 | [DFG]4 | [EG]4 | %128
[I:staff +1] [E,G,C]2 z2 | [F,A,C]2 z2 | F,2 ^F,2 | G,2 G,,2 |[K:treble] [CEG]4 | [DFG]4 | [DFG]4 | %135
 [EG]4 | [EGc]2 z2 | [FAc]2 z2 | [GBe]2 z2 | [Ace]2 z2 | [Bdg]2 z2 | [ceg]2 z2 |[K:bass] G,2 G,,2 | %143
 C,G,, C,,2 | [E,G,C]2 z2 | C2 D2- | D2 E2- | E2 F2- | F2 G2- | G2 z2 | G,2 G,,2 | C,G,, C,,2 | %152
 [A,C]2 [A,C]2 | [A,D]2 [A,C]2 | [A,C]2 [A,C]2 | [E,^G,]2 [A,,A,]2 | [A,C]2 z [A,C] | %157
 [A,D]2 z [A,D] | [A,C]2 z [A,,A,] | A,2 ^G,2 | [A,C]2 [A,C]2 | [A,D]2 [A,C]2 | [A,C]2 [A,C]2 | %163
 [E,^G,]2 [A,,A,]2 | [A,C]2 z [A,C] | [A,D]2 z [A,D] | [A,C]2 [E,B,]2 | [A,,A,]4 | A,2 ^C2 | %169
 D2 F,2 | E,2 G,2 | G,2 F,2 | B,,2 G,,2 | C,2 E,2 | D,2 F,2 | F,2 E,2 | [A,C]2 [A,C]2 | %177
 [A,D]2 [A,C]2 | [A,C]2 [A,C]2 | [E,^G,]2 [A,,A,]2 | [A,C]2 z [A,C] | [A,D]2 z [A,D] | %182
 [A,C]2 [E,B,]2 | [A,,A,]4 |[I:staff -1] [CEG]4 | [DFG]4 | [DFG]4 | [EG]4 | %188
[I:staff +1] [E,G,C]2 z2 | [F,A,C]2 z2 | F,2 ^F,2 | G,2 G,,2 |[K:treble] [CEG]4 | [DFG]4 | [DFG]4 | %195
 [EG]4 | [EGc]2 z2 | [FAc]2 z2 | [GBe]2 z2 | [Ace]2 z2 | [Bdg]2 z2 | [ceg]2 z2 |[K:bass] G,2 G,,2 | %203
 C,G,, C,,2 | [E,G,C]2 z2 | C2 D2- | D2 E2- | E2 F2- | F2 G2- | G2 z2 | G,2 G,,2 | C,G,, C,,2 | %212
 G,/G/G,/G/ G,/G/G,/G/ | G,/G/G,/G/ G,/G/G,/G/ | G, z z2 | G, z z2 | G,/G/G,/G/ G,/G/G,/G/ | %217
 G,/G/G,/G/ G,/G/G,/G/ | G, z z2 | G, z z2 |[I:staff -1] [CEG]4 | [DFG]4 | [DFG]4 | [EG]4 | %224
[I:staff +1] [E,G,C]2 z2 | [F,A,C]2 z2 | F,2 ^F,2 | G,2 G,,2 |[K:treble] [CEG]4 | [DFG]4 | [DFG]4 | %231
 [EG]4 | [EGc]2 z2 | [FAc]2 z2 | [GBe]2 z2 | [Ace]2 z2 | [Bdg]2 z2 | [ceg]2 z2 |[K:bass] G,2 G,,2 | %239
 C,G,, C,,2 | [E,G,C]2 z2 | C2 D2- | D2 E2- | E2 F2- | F2 G2- | G2 z2 | G,2 G,,2 | C,2 z2 |] %248
[M:3/4]!f! C,G, E,G, C,G, | B,,G, D,G, B,,G, | A,C A,C G,C | G,C F,C E,C | C,G, E,G, C,G, | %253
 ^F,D A,D F,D | G,D D,D D,C | z G, D,B,, G,,2 :: CG EG CG | CG EG CG | E,C G,C F,C | F,C _B,C A,C | %260
[K:treble] DA ^FA DA | DA ^FA DA |[K:bass] ^F,D A,D G,D | G,D CD B,D | C,G, E,G, C,G, | %265
 B,,G, D,G, B,,G, | A,C A,C G,C | G,C F,C E,C | F,C F,C E,C | E,C D,C C,C | F,C G,C G,B, | %271
 C2 G,2 C,2 :|[K:F][M:3/4][K:treble]!p! F2 z2!p! F2 | G2 E2 F2 |!p! F2 z2!p! F2 | z2 B2 A2 | %276
 F2 z2 z2 | E2 z2 z2 | F2 G2 G,2 | C6 :: D2 ^F2 G2 | z2 c2 B2 | C2 E2 F2 | z2 B2 A2 | %284
 [B,DF]2 z2 z2 | [A,CF]2 z2 z2 |[K:bass] B,2 C2 C,2 | F,2 z2 z2 :| %288
V:4
 x2 | x8 | x8 | x8 | x8 | x8 | x8 | x8 | x8 | x8 | x8 | x8 | x8 | x8 | x8 | x8 | x8 | x8 | x8 | %19
 x8 | x8 | x8 | x8 | x8 | x8 | x8 | x8 | x8 | x8 | x8 | x8 | x8 | x8 | x8 | x6 :: x2 | x8 | x8 | %38
 x8 | x8 | x8 | x8 | x8 | x8 | x8 | x8 | x8 | x8 | x8 | x8 | x8 | x8 | x8 | x8 | x8 | x8 | x8 | %57
 x8 | x8 | x8 | x8 | x8 | x8 | x8 | x8 | x8 | x8 | x8 | x8 | x8 | x8 | x8 | x8 | x8 | x8 | x8 | %76
 x8 | x8 | x8 | x8 | x8 | x8 | x8 | x8 | x8 | x8 | x8 | x6 :|[M:2/4] x4 | x4 | x4 | x4 | x4 | x4 | %94
 x4 | x4 |[K:treble] x4 | x4 | x4 | x4 | x4 | x4 | x4 | x4 | x4 | x4 |[K:bass] x4 | x4 | x4 | %109
 [F,A,]4 | [G,B,]4 | [A,C]4 | [B,D]4 | [CE]2 x2 | x4 | x4 | x4 | x4 | x4 | x4 | x4 | x4 | x4 | x4 | %124
 x4 | x4 | x4 | x4 | x4 | x4 | x4 | x4 |[K:treble] x4 | x4 | x4 | x4 | x4 | x4 | x4 | x4 | x4 | %141
 x4 |[K:bass] x4 | x4 | x4 | [F,A,]4 | [G,B,]4 | [A,C]4 | [B,D]4 | [CE]2 x2 | x4 | x4 | x4 | x4 | %154
 x4 | x4 | x4 | x4 | x4 | E,4 | x4 | x4 | x4 | x4 | x4 | x4 | x4 | x4 | x4 | x4 | x4 | x4 | x4 | %173
 x4 | x4 | x4 | x4 | x4 | x4 | x4 | x4 | x4 | x4 | x4 | x4 | x4 | x4 | x4 | x4 | x4 | x4 | x4 | %192
[K:treble] x4 | x4 | x4 | x4 | x4 | x4 | x4 | x4 | x4 | x4 |[K:bass] x4 | x4 | x4 | [F,A,]4 | %206
 [G,B,]4 | [A,C]4 | [B,D]4 | [CE]2 x2 | x4 | x4 | x4 | x4 | x4 | x4 | x4 | x4 | x4 | x4 | x4 | x4 | %222
 x4 | x4 | x4 | x4 | x4 | x4 |[K:treble] x4 | x4 | x4 | x4 | x4 | x4 | x4 | x4 | x4 | x4 | %238
[K:bass] x4 | x4 | x4 | [F,A,]4 | [G,B,]4 | [A,C]4 | [B,D]4 | [CE]2 x2 | x4 | x4 |][M:3/4] x6 | %249
 x6 | x6 | x6 | x6 | x6 | x6 | x6 :: x6 | x6 | x6 | x6 |[K:treble] x6 | x6 |[K:bass] x6 | x6 | x6 | %265
 x6 | x6 | x6 | x6 | x6 | x6 | x6 :|[K:F][M:3/4][K:treble] x6 | x6 | x6 | x6 | x6 | x6 | x6 | x6 :: %280
 D6 | D6 | C6 | C6 | x6 | x6 |[K:bass] x6 | x6 :| %288
V:5
 x2 | x8 | x8 | x8 | x8 | x8 | x8 | x8 | x8 | x8 | x8 | x8 | x8 | x8 | x8 | x8 | x8 | x8 | x8 | %19
 x8 | x8 | x8 | x8 | x8 | x8 | x8 | x8 | x8 | x8 | x8 | x8 | x8 | x8 | x8 | x6 :: x2 | x8 | x8 | %38
 x8 | x8 | x8 | x8 | x8 | x8 | x8 | x8 | x8 | x8 | x8 | x8 | x8 | x8 | x8 | x8 | x8 | x8 | x8 | %57
 x8 | x8 | x8 | x8 | x8 | x8 | x8 | x8 | x8 | x8 | x8 | x8 | x8 | x8 | x8 | x8 | x8 | x8 | x8 | %76
 x8 | x8 | x8 | x8 | x8 | x8 | x8 | x8 | x8 | x8 | x8 | x6 :|[M:2/4] x4 | x4 | x4 | x4 | x4 | x4 | %94
 x4 | x4 | x4 | x4 | x4 | x4 | x4 | x4 | x4 | x4 | x4 | x4 | x4 | x4 | x4 | x4 | x4 | x4 | x4 | %113
 x4 | x4 | x4 | x4 | x4 | x4 | x4 | x4 | x4 | x4 | x4 | x4 | x4 | x4 | x4 | x4 | x4 | x4 | x4 | %132
 x4 | x4 | x4 | x4 | x4 | x4 | x4 | x4 | x4 | x4 | x4 | x4 | x4 | x4 | x4 | x4 | x4 | x4 | x4 | %151
 x4 | x4 | x4 | x4 | x4 | x4 | x4 | x4 | x4 | x4 | x4 | x4 | x4 | x4 | x4 | x4 | x4 | x4 | x4 | %170
 x4 | A4 | x4 | x4 | x4 | G4 | x4 | x4 | x4 | x4 | x4 | x4 | x4 | x4 | x4 | x4 | x4 | x4 | x4 | %189
 x4 | x4 | x4 | x4 | x4 | x4 | x4 | x4 | x4 | x4 | x4 | x4 | x4 | x4 | x4 | x4 | x4 | x4 | x4 | %208
 x4 | x4 | x4 | x4 | x4 | x4 | x4 | x4 | x4 | x4 | x4 | x4 | x4 | x4 | x4 | x4 | x4 | x4 | x4 | %227
 x4 | x4 | x4 | x4 | x4 | x4 | x4 | x4 | x4 | x4 | x4 | x4 | x4 | x4 | x4 | x4 | x4 | x4 | x4 | %246
 x4 | x4 |][M:3/4] x6 | x6 | x6 | x6 | x6 | x6 | x6 | x6 :: x6 | x6 | x6 | x6 | x6 | x6 | x6 | x6 | %264
 x6 | x6 | x6 | x6 | x6 | x6 | x6 | x6 :|[K:F][M:3/4] x6 | x6 | x6 | x6 | x6 | x6 | x6 | x6 :: x6 | %281
 x6 | x6 | x6 | x6 | x6 | x6 | x6 :| %288

